X:51
T:Polska ur Petter Dufvas notbok (Ma6-51)
R:Polska
O:Verkelbäck, Småland
B:Petter Dufvas notbok
S:Petter Dufva
N:Smus Ma6 bild 53
M:3/4
L:1/8
K:D
DfEg Fa|(ag)(gf)(fe)|DfEg Fa|(ag)(gf)(fe)|Fd Bdcd|ed/c/ d2D2:|
|:(D/E/F/G/) AAAd|(AG)(GF)(FE)|(D/E/F/G/) AAAd|(AG)(GF)(FE)|Fd Bdcd|ed/c/ d2D2:|

